!!!!SEGMENT: pl-wn--mus-iii-72-534--001-004_zarebski-juliusz--etrennes-op-27-conte.krn
!!!cenid: 18xx:3552
!!!COM: Zarębski, Juliusz
!!!COM-rismID: pe30020631
!!!CDT: 1854/02/28-1885/09/15
!!!CNT:
!!!OTL: Etrennes op. 27
!!!OMV: 004
!!!PDT:
!!!AGN:
!!!SMS-siglum: PL-Wn
!!!SMS-shelfmark: Mus.III.72.534
!!!SMS-shelfwork: 001-004 W
!!!SMS-variant:
!!!SMS-altvar:
!!!NIFC-rismSourceID:
!!!NIFC-rismChildID:
!!!NIFC-islandoraID:
!!!URL-pdf-islandora:
!!!URL-scan: https://polona.pl/item/etrennes-six-morceaux-d-execution-facile-pour-piano-oeuvre-27,MTA4MzU2NzI5/18 @EN{Scan on Polona} @PL{Skany w portalu Polona}
!!!ONB-nifc:
!!!AIN: 2 piano
!!!key: a
**kern	**dynam	**kern	**dynam
*part2	*part2	*part1	*part1
*staff2	*	*staff1	*
*I"Piano	*	*I"Piano	*
*I'pf	*	*I'pf	*
*ICklav	*	*ICklav	*
*Ipiano	*	*Ipiano	*
*clefF4	*	*clefG2	*
*a:	*	*a:	*
*k[]	*	*k[]	*
*M2/4	*	*M2/4	*
=1	=1	=1	=1
*MM92	*	*MM92	*
!	!	!LO:TX:b:i:t=dolce	!
!	!	!LO:TX:a:B:t=Moderato. ([quarter]=92)	!
(8A\L	.	4r	.
8e\	.	.	.
!	!	!LO:TX:a:i:t=espressivo	!
8c\	.	([4a/	.
8e\J	.	.	.
=2	=2	=2	=2
8A\L	.	8a\L]	.
8e\	.	8b\	.
8c\	.	8cc\	.
8e\J	.	8ee\J	.
=3	=3	=3	=3
8A\L	.	4aa\	.
8e\	.	.	.
8c\	.	8.ee\L	.
8e\J	.	.	.
.	.	16cc\Jk	.
=4	=4	=4	=4
8G#X\L	.	4ee\	.
8e\	.	.	.
8B\	.	4dd\)	.
8e\J)	.	.	.
=5	=5	=5	=5
(8G#X\L	.	(4bb\	.
8e\	.	.	.
8B\	.	8.ee\L	.
8e\J	.	.	.
.	.	[16b\Jk	.
=6	=6	=6	=6
8G#X\L	.	8b\L]	.
8e\	.	8cc\J	.
8B\	.	8dd\L	.
8e\J)	.	8ee\J	.
!LO:LB:g=original	!	!	!
=7	=7	=7	=7
(8A\L	.	4dd\	.
8e\	.	.	.
8c\	.	[4cc\)	.
8e\J	.	.	.
=8	=8	=8	=8
8Gn\L	.	4cc\]	.
8e\	.	.	.
8A\	.	[4b\	.
8e\J)	.	.	.
=9	=9	=9	=9
(8F\L	.	(8b\L]	.
8e\	.	8a\	<
8A\	.	8b\	.
8e\J)	.	8cc\J	[[
=10	=10	=10	=10
*^	*	*	*
(8A/L	2C\	.	4.e\ 4.ee	>
8c/	.	.	.	.
8A/	.	.	.	.
8c/J)	.	.	16dd\LL	]
.	.	.	16cc\JJ)	.
*v	*v	*	*	*
=11	=11	=11	=11
(8F\L	.	(8b\L	<
8e\	.	8cc\	.
8A\	.	8a\	.
8e\J)	.	8cc\J	[[
=12	=12	=12	=12
*^	*	*	*
(8A/L	2C\	.	4.e\ 4.ee	>
8c/	.	.	.	.
8A/	.	.	.	.
[8c/J)	.	.	16dd\LL	]
.	.	.	16cc\JJ)	.
!LO:LB:g=original	!	!	!	!
=13	=13	=13	=13	=13
*	*	*	*^	*
8c/L]	[2D\	.	(8b/L	2f\	.
(8c/	.	.	8a/	.	<
8B/	.	.	8b/	.	.
8A/J	.	.	8cc/J	.	.
=14	=14	=14	=14	=14	=14
8A/L	2D\]	.	8cc/L	2f\	[ >
8G#X/	.	.	8dd/	.	.
8A/	.	.	8cc/	.	.
8B/J)	.	.	8b/J	.	.
=15	=15	=15	=15	=15	=15
(8c/L	4E\	.	4a/	2e\	] <
8B/	.	.	.	.	.
8d/	4r	.	4g#X/)	.	.
8c/J	.	.	.	.	.
*v	*v	*	*	*	*
*	*	*v	*v	*
=16	=16	=16	=16
8e\L	.	2r	[ > ]]
8d\	.	.	.
8c\	.	.	.
8B\J)	.	.	.
=17	=17	=17	=17
(8A\L	.	4r	.
8e\	.	.	.
8c\	.	([4a/	<
8e\J	.	.	.
=18	=18	=18	=18
8A\L	.	8a\L]	.
8e\	.	8b\	.
8c\	.	8cc\	.
8e\J	.	8ee\J	.
=19	=19	=19	=19
8A\L	.	4aa\	.
8e\	.	.	.
8c\	.	8.ee\L	[ >
8e\J)	.	.	.
.	.	16cc\Jk	.
!LO:LB:g=original	!	!	!
=20	=20	=20	=20
(8A\L	.	4ee\	.
8f\	.	.	.
8d\	.	[4dd\)	]
8f\J	.	.	.
=21	=21	=21	=21
8A\L	.	8dd\L]	.
8f\	.	(8dd\	.
8d\	.	8dd\	.
8f\J	.	8ee\J	.
=22	=22	=22	=22
8A-X\L	.	8.ff\L	.
8f\	.	.	.
.	.	16gg\Jk	.
8c\	.	8.ee\L	.
8f\J)	.	.	.
.	.	16ff\Jk)	.
=23	=23	=23	=23
*^	*	*	*
(8G/L	2G\	.	(8dd\L	.
8c/	.	.	8an\	.
8c/	.	.	8a\	.
8d/J	.	.	8b\J	.
=24	=24	=24	=24	=24
8ryy	8e\L	.	8.cc\L	.
4G/	8G\	.	.	.
.	.	.	16dd\Jk	.
.	8d\	.	8.b\L	.
8G/)	8G\J	.	.	.
.	.	.	16cc\Jk)	.
=25	=25	=25	=25	=25
8c/	2F\	.	(8a\L	.
4B/	.	.	8g\)	.
.	.	.	(8g\	.
[8B/	.	.	8dd\J)	.
!LO:LB:g=original	!	!	!	!
=26	=26	=26	=26	=26
8B/L]	2E\	.	2g\ 2ee	.
(8B/	.	.	.	.
8qd/	.	.	.	.
8c/	.	.	.	.
8B/J)	.	.	.	.
=27	=27	=27	=27	=27
8c/	2F\	.	(8a\L	.
4B/	.	.	8g\)	.
.	.	.	(8g\	.
[8B/	.	.	8dd\J	.
=28	=28	=28	=28	=28
8B/L]	2E\	.	2g\) 2ee	.
(8B/	.	.	.	.
8qd/	.	.	.	.
8c/	.	.	.	.
8B/J)	.	.	.	.
=29	=29	=29	=29	=29
8D#X/L	4D#\	.	4g\ 4ff#X	<
8B/	.	.	.	.
8Dn/	[4D\	.	[4g\ [4gg	[[
[8B/J	.	.	.	.
=30	=30	=30	=30	=30
8B/L]	4D\]	.	4g\] 4gg]	>
8B/	.	.	.	.
8D#X/	4D#\	.	4g\ 4ff#X	]]
8B/J	.	.	.	.
*v	*v	*	*	*
=31	=31	=31	=31
(8E\L	.	(2gn\ [2ee	.
8B\	.	.	.
8e\	.	.	.
8B\J	.	.	.
=32	=32	=32	=32
8E/L	.	2g#X\) 2ee]	.
8E/	.	.	.
8BB/	.	.	.
8EE/J)	.	.	.
!LO:LB:g=original	!	!	!
=33	=33	=33	=33
*	*	*^	*
(8EE/L	.	(4ee/	8g#X\L	pp
8BB/	.	.	8e\	.
8EE/	.	[4b/	8g#\	.
8BBB/J	.	.	8e\J	.
=34	=34	=34	=34	=34
8EE/L	.	4b/]	8d#X\L	.
8BB/	.	.	8e\	.
8EE/	.	[4b/)	8g#X\	.
8BBB/J	.	.	8e\J	.
=35	=35	=35	=35	=35
8EE/L	.	(4b/]	8d#X\L	.
8BB/	.	.	8e\	.
8EE/	.	8a/L	8f#X\	.
8BBB/J	.	8b/J	8g#X\J	.
=36	=36	=36	=36	=36
8EE/L	.	4cc/	8a\L	.
8BB/	.	.	8e\	.
8EE/	.	4ddn/)	8b\	.
8BBB/J	.	.	8e\J	.
=37	=37	=37	=37	=37
8EE/L	.	(4b/	8g#X\L	.
8BB/	.	.	8e\	.
8EE/	.	[4a/	8f#X\	.
8BBB/J	.	.	8e\J	.
=38	=38	=38	=38	=38
8EE/L	.	4a/]	8d#X\L	.
8BB/	.	.	8e\	.
8EE/	.	[4a/)	8f#X\	.
8BBB/J)	.	.	8e\J	.
!LO:LB:g=original	!	!	!	!
=39	=39	=39	=39	=39
(8EE/L	.	(4a/]	8d#X\L	.
8BB/	.	.	8e\	.
8EE/	.	8f#X/L	8d#\	.
8BBB/J	.	8g#X/J	8e\J	.
=40	=40	=40	=40	=40
8EE/L	.	4a/	8f#X\L	.
8BB/	.	.	8e\	.
8EE/	.	4b/)	8g#X\	.
8BBB/J	.	.	8e\J	.
=41	=41	=41	=41	=41
8EE/L	.	(4ee/	8g#X\L	.
8BB/	.	.	8e\	.
8EE/	.	[4b/	8g#\	.
8BBB/J	.	.	8e\J	.
=42	=42	=42	=42	=42
8EE/L	.	4b/]	8d#X\L	.
8BB/	.	.	8e\	.
8EE/	.	[4b/	8g#X\	.
8BBB/J	.	.	8e\J	.
=43	=43	=43	=43	=43
8EE/L	.	4b/]	8d#X\L	.
8BB/	.	.	8e\	.
8EE/	.	8a/L	8f#X\	.
8BBB/J	.	8b/J	8g#X\J	.
=44	=44	=44	=44	=44
8EE/L	.	4cc/	8a\L	.
8BB/	.	.	8e\	.
8EE/	.	4ddn/)	8b\	.
8BBB/J)	.	.	8e\J	.
!LO:LB:g=original	!	!	!	!
=45	=45	=45	=45	=45
(8EE/L	.	(4b/	8g#X\L	.
8BB/	.	.	8e\	.
8EE/	.	[4a/	8f#X\	.
8BBB/J	.	.	8e\J	.
=46	=46	=46	=46	=46
8EE/L	.	4a/]	8d#X\L	.
8BB/	.	.	8e\	.
8EE/	.	[4a/	8f#X\	.
8BBB/J	.	.	8e\J	.
=47	=47	=47	=47	=47
8EE/L	.	4a/]	8d#X\L	.
8BB/	.	.	8e\	.
8EE/	.	8f#X/L	8d#\	.
8BBB/J	.	8g#X/J	8e\J	.
=48	=48	=48	=48	=48
8EE/L	.	4a/	8f#X\L	.
8BB/	.	.	8e\	.
8EE/	.	4b/)	8g#X\	.
8BBB/J)	.	.	8e\J	.
*	*	*v	*v	*
=49	=49	=49	=49
(8EE/L	.	[2g#X/ [2b	.
8BBB/	.	.	.
8EE/	.	.	.
8BB/J	.	.	.
=50	=50	=50	=50
8D/L	.	2g#/] 2b]	.
8EE/	.	.	.
8C/	.	.	.
8EE/J)	.	.	.
!LO:LB:g=original	!	!	!
=51	=51	=51	=51
(8BBB\L	.	[2g#X/ [2b	.
8EE\)	.	.	.
(8EE\	.	.	.
8BB\J)	.	.	.
=52	=52	=52	=52
(8d\L	.	2g#/_ 2b_	.
8E\	.	.	.
8c\	.	.	.
8E\J)	.	.	.
=53	=53	=53	=53
(8B\L	.	((4g#/] 4b]	>
8E\	.	.	.
8d\	.	4g#X\ 4ff	.
8E\J	.	.	.
=54	=54	=54	=54
8c\L	.	4fn/ 4a	.
8E\	.	.	.
8B\	.	4g#X\ 4ee	.
8E\J	.	.	.
=55	=55	=55	=55
8B-X\L	.	4e/ 4gn	.
8E\	.	.	.
8A\	.	4f#X/ 4dd	.
8E\J	.	.	.
=56	=56	=56	=56
8G#X\L	.	4d/ 4fn	.
8E\	.	.	.
8G#\	.	[4e/)) [4cc	]]
8E\J)	.	.	.
!LO:LB:g=original	!	!	!
=57	=57	=57	=57
(8AA\L	.	4e/] 4cc]	.
8e\	.	.	.
8c\	.	([4a/	.
8e\J)	.	.	.
=58	=58	=58	=58
*^	*	*	*
4A/	(8G\L	.	8a\L]	<
.	8e\	.	8b\	.
4ryy	8c\	.	8cc\	.
.	8e\J)	.	8ee\J	[[
=59	=59	=59	=59	=59
(4A/	8F#X\L	.	4aa\	.
.	8e\	.	.	.
4ryy	8c\	.	8.ee\L	>
.	8e\J)	.	.	.
.	.	.	16cc\Jk	.
=60	=60	=60	=60	=60
(4A/	8Fn\L	.	4b\	.
.	8e\	.	.	.
4ryy	8c\	.	[4a/)	]]
.	8e\J)	.	.	.
=61	=61	=61	=61	=61
(4A/	8E\L	.	4a/]	<
.	8e\	.	.	.
4ryy	8c\	.	4a/	[[
.	8e\J)	.	.	.
*v	*v	*	*	*
=62	=62	=62	=62
(8D\L	.	4b-X/	>
8d\	.	.	.
8A\	.	[4a/	]]
8c\J)	.	.	.
!LO:LB:g=original	!	!	!
=63	=63	=63	=63
*^	*	*^	*
4r	2C\	.	(4a/	8a\L]	.
.	.	.	.	8e\	<
[4A/	.	.	4a/	8a\	.
.	.	.	.	8e\J	.
=64	=64	=64	=64	=64	=64
2A/]	4D\	.	4b-X/	8b-\L	[ >
.	.	.	.	8e\	.
.	4C\	.	4a/	8a\	.
.	.	.	.	8e\J)	.
*v	*v	*	*	*	*
*	*	*v	*v	*
=65	=65	=65	=65
*ped	*	*	*
[2BB-X\ [2F [2A	.	[2d/ [2f [2a [2dd	]
=66	=66	=66	=66
8BB-\L] 8F] 8A]	.	8d\L] 8f] 8a] 8dd]	.
(8A\	.	(8a\	<
8d\	.	8dd\	.
8A\J	.	8a\J	.
=67	=67	=67	=67
8d\L	.	8dd\L	.
8e\J	.	8ee\J	.
[4f\	.	[4ff\	[[
=68	=68	=68	=68
8f\L]	.	8ff\L]	>
8e\J	.	8ee\J	.
4d\)	.	4dd\)	]]
*Xped	*	*	*
=69	=69	=69	=69
*ped	*	*	*
(2BBn\ 2F 2A	.	[2d/ [2f [2a [2dd	.
!LO:LB:g=original	!	!	!
=70	=70	=70	=70
8BB\L) 8F 8A	.	8d\L] 8f] 8a] 8dd]	.
8A\	.	(8a\	<
8d\	.	8dd\	.
8A\J	.	8a\J	.
=71	=71	=71	=71
8d\L	.	8dd\L	.
8e\J	.	8ee\J	.
4f\	.	[4ff\	[
=72	=72	=72	=72
8f\L	.	8ff\L]	>
8e\	.	8ee\	.
8d\	.	8dd\	.
8B\J	.	8b\J)	]]
*Xped	*	*	*
=73	=73	=73	=73
*ped	*	*	*
2EE/ 2E	.	2B/ 2d 2a	.
=74	=74	=74	=74
8r	.	8r	.
8e\L	.	(8ee\L	mf
8qg/	.	8qgg/	.
8f\	.	8ff\	.
8d\J	.	8dd\J	.
*Xped	*	*	*
=75	=75	=75	=75
*ped	*	*	*
2c\	.	[2cc\)	.
=76	=76	=76	=76
*	*	*^	*
2EE/ 2E	.	4.cc/]	2d\ 2g#X	>
.	.	8b/	.	.
*	*	*v	*v	*
*Xped	*	*	*
!LO:LB:g=original	!	!	!
=77||	=77||	=77||	=77||
*k[f#c#g#]	*	*k[f#c#g#]	*
!	!	!LO:TX:a:B:t=Poco piu mosso.	!
8AA\L 8E	.	8e'\L 8cc# 8ee	] pp
8D\ 8A	.	8f#'\ 8a	.
8D\ 8A	.	8f#'\ 8a	.
8AA\J 8E	.	8e'\J 8cc# 8ee	.
=78	=78	=78	=78
8AA\L 8E	.	8e'\L 8cc# 8ee	.
8D\ 8A	.	8f#'\ 8a	.
8D\ 8A	.	8f#'\ 8a	.
8AA\J 8E	.	8e'\J 8cc# 8ee	.
=79	=79	=79	=79
8AA/L 8E	.	8e'\L 8cc# 8ee	.
8qD/	.	(8qdd/	.
8F#/J	.	8ff#'^\J)	.
(16E/LL	.	(16ee\LL	.
16D/	.	16dd\	.
16C#/	.	16cc#\	.
16D/JJ	.	16dd\JJ	.
=80	=80	=80	=80
16E/LL	.	16ee\LL	.
16D/	.	16dd\	.
16C#/	.	16cc#\	.
16D/JJ	.	16dd\JJ	.
8BB'/L)	.	8b'/L)	.
8EE'/J	.	8e'/J	.
=81	=81	=81	=81
8AA'\L 8E	.	8e'\L 8cc# 8ee	.
8D'\ 8A	.	8f#'\ 8a	.
8D'\ 8A	.	8f#'\ 8a	.
8AA'\J 8E	.	8e'\J 8cc# 8ee	.
!LO:LB:g=original	!	!	!
=82	=82	=82	=82
8AA'\L 8E	.	8e'\L 8cc# 8ee	.
8D'\ 8A	.	8f#'\ 8a	.
8D'\ 8A	.	8f#'\ 8a	.
8AA'\J 8E	.	8e'\J 8cc# 8ee	.
=83	=83	=83	=83
8AA'\L 8E	.	8e'\L 8cc# 8ee	.
(8qF#/	.	(8qff#/	.
8A'^\J)	.	8aa'^\J)	.
(16F#/LL	.	(16ff#\LL	.
16D/	.	16dd\	.
16BB/	.	16b\	.
16D/JJ	.	16dd\JJ	.
=84	=84	=84	=84
16E/LL	.	16ee\LL	.
16C#/	.	16cc#\	.
16AA/	.	16a\	.
16C#/JJ)	.	16cc#\JJ	.
8BB'/L	.	8b'/L)	.
8EE'/J	.	8e'/J	.
=85	=85	=85	=85
8BB'/L	.	8b'/L	.
8EE'/	.	8e'/	.
8CC#'/	.	8c#'/	.
8EE'/J	.	8e'/J	.
=86	=86	=86	=86
(16DD#X/LL	.	(16d#X/LL	<
16BBB/	.	16B/	.
16DD#/	.	16d#/	.
16EE/JJ	.	16e/JJ	.
16FF#/LL	.	16f#/LL	.
16GG#/J	.	16g#/J	.
8AA'/J)	.	8a'/J)	[[
!LO:LB:g=original	!	!	!
=87	=87	=87	=87
8BB'/L	.	8b'/L	.
8EE'/	.	8e'/	.
8CC#'/	.	8c#'/	.
8EE'/J	.	8e'/J	.
=88	=88	=88	=88
(16DD#X/LL	.	(16d#X/LL	<
16BBB/	.	16B/	.
16DD#/	.	16d#/	.
16EE/JJ	.	16e/JJ	.
16FF#/LL	.	16f#/LL	.
16GG#/J	.	16g#/J	.
8AA'/J)	.	8a'/J)	[[
=89	=89	=89	=89
8BB'/L	.	8b'\L	<
8E'/	.	8ee'\	.
8C#'/	.	8cc#'\	.
8E'/J	.	8ee'\J	.
=90	=90	=90	=90
8B'\L	.	8bb'\L	.
8e'\	.	8eee'\	.
8c#'\	.	8ccc#'\	.
8e'\J	.	8eee'\J	[[
*clefG2	*	*	*
=91	=91	=91	=91
8b'\L	.	8bb'\L	>
8ee'\	.	8eee'\	.
8cc#'\	.	8ccc#'\	.
8ee'\J	.	8eee'\J	.
=92	=92	=92	=92
8cc#'\L	.	8ccc#'\L	.
8ee'\	.	8eee'\	.
8cc#'\	.	8ccc#'\	.
8ee'\J	.	8eee'\J	]]
!LO:LB:g=original	!	!	!
=93	=93	=93	=93
8A'/L 8e	.	8ee'\L 8ccc# 8eee	.
8d'/ 8a	.	8ff#'\ 8aa	.
8d'/ 8a	.	8ff#'\ 8aa	.
8A'/J 8e	.	8ee'\J 8ccc# 8eee	.
=94	=94	=94	=94
8A'/L 8e	.	8ee'\L 8ccc# 8eee	.
8d'/ 8a	.	8ff#'\ 8aa	.
8d'/ 8a	.	8ff#'\ 8aa	.
8A'/J 8e	.	8ee'\J 8ccc# 8eee	.
=95	=95	=95	=95
8A'/L 8e	.	8ee'\L 8ccc# 8eee	.
(8qd/	.	(8qddd/	.
8f#^/J)	.	8fff#'^\J)	.
(16e/LL	.	(16eee\LL	.
16d/	.	16ddd\	.
16c#/	.	16ccc#\	.
16d/JJ	.	16ddd\JJ	.
=96	=96	=96	=96
16e/LL	.	16eee\LL	.
16d/	.	16ddd\	.
16c#/	.	16ccc#\	.
16d/JJ	.	16ddd\JJ	.
8B'/L)	.	8bb'\L)	.
8E'/J	.	8ee'\J	.
=97	=97	=97	=97
8A'/L 8e	.	8ee'\L 8ccc# 8eee	.
8d'/ 8a	.	8ff#'\ 8aa	.
8d'/ 8a	.	8ff#'\ 8aa	.
8A'/J 8e	.	8ee'\J 8ccc# 8eee	.
=98	=98	=98	=98
8A'/L 8e	.	8ee'\L 8ccc# 8eee	.
8d'/ 8a	.	8ff#'\ 8aa	.
8d'/ 8a	.	8ff#'\ 8aa	.
8A'/J 8e	.	8ee'\J 8ccc# 8eee	.
!LO:LB:g=original	!	!	!
=99	=99	=99	=99
8A/L 8e	.	8ee\L 8ccc# 8eee	.
(8qf#/	.	(8qfff#/	.
8a'^</J)	.	8aaa^\J)	.
(16f#/LL	.	(16fff#^\LL	mf
16d/	.	16ddd\	.
16B/	.	16bb\	.
16d/JJ)	.	16ddd\JJ)	.
=100	=100	=100	=100
(16e^</LL	.	(16eee^\LL	.
16c#/	.	16ccc#\	.
16A/	.	16aa\	.
16c#/JJ)	.	16ccc#\JJ)	.
*clefF4	*	*	*
(16B^\LL	.	(16bb^\LL	.
16G#\	.	16gg#\	.
16E\	.	16ee\	.
16G#\JJ)	.	16gg#\JJ)	.
=101	=101	=101	=101
(16A^\LL	.	(16aa^\LL	.
16F#\	.	16ff#\	.
16D\	.	16dd\	.
16F#\JJ)	.	16ff#\JJ)	.
(16E^/LL	.	(16ee^\LL	.
16C#/	.	16cc#\	.
16AA/	.	16a\	.
16C#/JJ)	.	16cc#\JJ)	.
=102	=102	=102	=102
(16BB^/LL	.	(16b^/LL	.
16GG#/	.	16g#/	.
16EE/	.	16e/	.
16GG#/JJ)	.	16g#/JJ)	.
(16AA^/LL	.	(16a^/LL	.
16FF#/	.	16f#/	.
16DD/	.	16d/	.
16FF#/JJ)	.	16f#/JJ)	.
!LO:LB:g=original	!	!	!
=103	=103	=103	=103
8AA/	.	(16a/LL	f
.	.	16f#/	.
8r	.	16d/	.
.	.	16f#/JJ	.
!LO:TX:b:i:t=marcato	!	!	!
8c#'^\	.	16a/LL	.
.	.	16f#/	.
8r	.	16d/	.
.	.	16f#/JJ	.
=104	=104	=104	=104
(4.B'^\	.	16a/LL	.
.	.	16f#/	.
.	.	16d/	.
.	.	16f#/JJ	.
.	.	16a/LL	.
.	.	16f#/	.
8c#\)	.	16d/	.
.	.	16f#/JJ	.
=105	=105	=105	=105
8B'\L	.	16a/LL	.
.	.	16f#/	.
8A'\	.	16d/	.
.	.	16f#/JJ	.
8B'\	.	16a/LL	.
.	.	16f#/	.
8c#'\J	.	16d/	.
.	.	16f#/JJ)	.
=106	=106	=106	=106
(4B^\	.	(16a/LL	.
.	.	16f#/	.
.	.	16a/	.
.	.	16a/JJ	.
8A'\)	.	16ee^</LL	.
.	.	16a/	.
8r	.	16e/	.
.	.	16a/JJ)	.
!LO:LB:g=original	!	!	!
=107	=107	=107	=107
4r	.	(16a/LL	.
.	.	16f#/	.
.	.	16d/	.
.	.	16f#/JJ	.
8c#'\	.	16a/LL	.
.	.	16f#/	.
8r	.	16d/	.
.	.	16f#/JJ	.
=108	=108	=108	=108
(4.B^\	.	16a/LL	.
.	.	16f#/	.
.	.	16d/	.
.	.	16f#/JJ	.
.	.	16a/LL	.
.	.	16f#/	.
8c#\)	.	16d/	.
.	.	16f#/JJ	.
=109	=109	=109	=109
8B'\L	.	16a/LL	.
.	.	16f#/	.
8A'\	.	16d/	.
.	.	16f#/JJ	.
8B'\	.	16a/LL	.
.	.	16f#/	.
8c#'\J	.	16d/	.
.	.	16f#/JJ)	.
=110	=110	=110	=110
(4B^\	.	(16a/LL	.
.	.	16f#/	.
.	.	16a/	.
.	.	16a/JJ	.
(4A\)	.	16ee/LL	.
.	.	16a/	.
.	.	16e/	.
.	.	16a/JJ)	.
!LO:LB:g=original	!	!	!
=111	=111	=111	=111
!	!	!	!LO:HP:t=dim.
4A\)	.	(16ee/LL	>
.	.	16a/	.
.	.	16e/	.
.	.	16a/JJ	.
[4BB/	.	16ee/LL	.
.	.	16a/	.
.	.	16e/	.
.	.	16a/JJ	.
=112	=112	=112	=112
4BB/]	.	16ee/LL	.
.	.	16a/	.
.	.	16e/	.
.	.	16a/JJ	.
[4AA/	.	16ee/LL	.
.	.	16a/	.
.	.	16e/	.
.	.	16a/JJ	.
=113	=113	=113	=113
4AA/]	.	16ee/LL	.
.	.	16a/	.
.	.	16e/	.
.	.	16a/JJ	.
[4BBB/	.	16ee/LL	.
.	.	16a/	.
.	.	16e/	.
.	.	16a/JJ	.
=114	=114	=114	=114
4BBB/]	.	16ee/LL	.
.	.	16a/	.
.	.	16e/	.
.	.	16a/JJ	.
[4AAA/	.	16ee/LL	.
.	.	16a/	.
.	.	16e/	.
.	.	16a/JJ)	.
!LO:LB:g=original	!	!	!
=115	=115	=115	=115
*ped	*	*	*
2AAA/]	.	(16ee/LL	p
.	.	16a/	.
.	.	16e/	.
.	.	16a/JJ	.
!	!	!LO:TX:b:t=rit.	!
.	.	16ee/LL	.
.	.	16a/	.
.	.	16e/	.
.	.	16a/JJ	.
=116	=116	=116	=116
2r	.	16ee/LL	.
.	.	16a/	.
.	.	16e/	.
.	.	16a/JJ	.
.	.	16ee/LL	.
.	.	16a/	.
.	.	16e/	.
.	.	[16a/JJ)	.
=117||	=117||	=117||	=117||
*k[]	*	*k[]	*
!	!	!LO:TX:a:B:t=Tempo I.	!
(8A\L	.	4a/]	.
8e\	.	.	.
8c\	.	([4a/	.
8e\J	.	.	.
*Xped	*	*	*
=118	=118	=118	=118
8A\L	.	8a\L]	.
8e\	.	8b\	.
8c\	.	8cc\	.
8e\J	.	8ee\J	.
=119	=119	=119	=119
8A\L	.	4aa\	.
8e\	.	.	.
8c\	.	8.ee\L	.
8e\J	.	.	.
.	.	16cc\Jk	.
=120	=120	=120	=120
8G#X\L	.	4ee\	.
8e\	.	.	.
8B\	.	4dd\)	.
8e\J)	.	.	.
!LO:LB:g=original	!	!	!
=121	=121	=121	=121
(8G#X\L	.	(4bb\	.
8e\	.	.	.
8B\	.	8.ee\L	.
8e\J	.	.	.
.	.	[16b\Jk)	.
=122	=122	=122	=122
8G#X\L	.	(8b\L]	.
8e\	.	8cc\	.
8B\	.	8dd\	.
8e\J)	.	8ee\J	.
=123	=123	=123	=123
(8A\L	.	4dd\	.
8e\	.	.	.
8c\	.	[4cc\)	.
8e\J	.	.	.
=124	=124	=124	=124
8Gn\L	.	4cc\]	<
8e\	.	.	.
8B\	.	[4b\	.
8e\J	.	.	.
=125	=125	=125	=125
8F\L	.	4b\]	.
8e\	.	.	.
8A\	.	[4a/	.
8e\J	.	.	.
=126	=126	=126	=126
8E\L	.	4a/]	.
8e\	.	.	.
8G\	.	[4g/	[[
8e\J)	.	.	.
=127	=127	=127	=127
*^	*	*^	*
4ryy	2D\	.	4g/]	8g\L	.
.	.	.	.	8e\	.
[4G/	.	.	[4g/	8g\	.
.	.	.	.	[8e\J	.
!LO:LB:g=original	!	!	!	!	!
=128	=128	=128	=128	=128	=128
4G/]	4C\	.	4g/]	8e\L]	>
.	.	.	.	8e\	.
[4BB/	4ryy	.	4g#X/	8d\	.
.	.	.	.	8e\J	]
*v	*v	*	*	*	*
*	*	*v	*v	*
=129	=129	=129	=129
4BB/]	.	(8c/L	.
.	.	8a/	.
!LO:TX:a:i:t=cantando	!	!	!
([4AA^</	mf <	8e/	.
.	.	8a/J	.
=130	=130	=130	=130
8AA/L]	.	8c/L	.
8BB/	.	8a/	.
8C/	.	8e/	.
8E/J	[[	8a/J	.
=131	=131	=131	=131
4A\	.	8c/L	.
.	.	8a/	.
8.E\L	.	8e/	.
.	.	8a/J	.
16C\Jk	.	.	.
=132	=132	=132	=132
[2E\)	.	8B/L	.
.	.	8g/	.
.	.	8e/	.
.	.	8g/J)	.
=133	=133	=133	=133
(4E\]	.	(8A/L	.
.	.	8f#X/	.
8.D/L	.	8d/	.
.	.	8f#/J	.
16AA/Jk)	.	.	.
=134	=134	=134	=134
[2D\	.	8A/L	.
.	.	8fn/	.
.	.	8d/	.
.	.	8f/J)	.
=135	=135	=135	=135
(8D/L]	.	(8A/L	.
8C/	.	8e/	.
8BB/	.	8c/	.
8AA/J	.	8e/J	.
!LO:LB:g=original	!	!	!
=136	=136	=136	=136
[2FFn/)	.	8A/L	.
.	.	8e/	.
.	.	8c/	.
.	.	8e/J)	.
=137	=137	=137	=137
8FF/L]	.	(8A/L	.
(8C/	.	8e/	p
8BB/	.	8c/	.
8AA/J	.	8e/J	.
=138	=138	=138	=138
[2FF/)	.	8A/L	.
.	.	8d#X/	.
.	.	8c/	.
.	.	8d#/J)	.
=139	=139	=139	=139
2FF/]	.	(8A/L	.
.	.	8d#X/	.
.	.	8B/	.
.	.	8d#/J	.
=140	=140	=140	=140
2EE/	.	8G#X/L	>
.	.	8e/	.
.	.	8B/	.
.	.	8e/J)	]]
=141	=141	=141	=141
*	*	*^	*
2AAA/	.	(4.a/	2c#X\	p
.	.	16g#X/LL	.	.
.	.	16f#X/JJ	.	.
=142	=142	=142	=142	=142
!	!	!	!	!LO:TX:t=P:problem= < nad całym systemem
!	!	!	!	!LO:DY:a
(2C\ 2Gn	.	4.e/	2cn\	<
.	.	16fn/LL	.	.
.	.	16f#X/JJ)	.	.
!LO:LB:g=original	!	!	!	!
=143	=143	=143	=143	=143
!	!	!	!	!LO:DY:a
!	!	!	!	!LO:TX:t=P:problem= > nad całym systemem
(2GG/) 2D	.	(4.g/	2B\	[ >
.	.	16f#X/LL	.	.
.	.	16e/JJ	.	]
=144	=144	=144	=144	=144
!	!	!	!	!LO:TX:t=P:problem= < nad całym systemem
!	!	!	!	!LO:DY:a
2BB-X/ 2F	.	4.d/	2B-X\	<
.	.	16e-X/LL	.	.
.	.	16en/JJ	.	.
=145	=145	=145	=145	=145
!	!	!	!	!LO:TX:t=P:problem= > nad całym systemem
!	!	!	!	!LO:DY:a
[2FF/) [2C	.	4.f/	[2A\	[ >
.	.	16e/LL	.	.
.	.	16d/JJ	.	]
=146	=146	=146	=146	=146
2FF/] 2C]	.	4.c/	2A\]	.
.	.	16d/LL	.	.
.	.	16d#X/JJ)	.	.
*	*	*v	*v	*
=147	=147	=147	=147
2FF/ [2BB	.	(2A/ 2d#X	.
=148	=148	=148	=148
2EE/ 2BB]	.	2G#X/) 2e	.
=149	=149	=149	=149
*	*	*^	*
(2A\ 2e	.	(4.aa/	2cc#X\	.
.	.	16gg#X/LL	.	.
.	.	16ff#X/JJ	.	.
=150	=150	=150	=150	=150
2c\ 2gn	.	4.ee/	2ccn\	.
.	.	16ffn/LL	.	.
.	.	16ff#X/JJ)	.	.
!LO:LB:g=original	!	!	!	!
=151	=151	=151	=151	=151
2G\ 2d	.	(4.gg/	2b\	.
.	.	16ff#X/LL	.	.
.	.	16ee/JJ	.	.
=152	=152	=152	=152	=152
2B-X\ 2f	.	4.dd/	2b-X\	.
.	.	16ee-X/LL	.	.
.	.	16een/JJ	.	.
=153	=153	=153	=153	=153
[2F\) [2c	.	4.ff/	[2a\	.
.	.	16ee/LL	.	.
.	.	16dd/JJ	.	.
=154	=154	=154	=154	=154
2F\] 2c]	.	4.cc/	2a\]	.
.	.	16dd/LL	.	.
.	.	16dd#X/JJ)	.	.
*	*	*v	*v	*
=155	=155	=155	=155
([2E\ 2c	.	(2a\ [2ee	.
=156	=156	=156	=156
2E\]) 2B	.	2g#X\) 2ee]	.
=157	=157	=157	=157
!	!	!LO:TX:a:B:t=Piu mosso.	!
8AA'\L 8E	.	8e'\L 8cc#X 8ee	pp
8D'\ 8A	.	8f#X'\ 8a	.
8D'\ 8A	.	8f#'\ 8a	.
8AA'\J 8E	.	8e'\J 8cc# 8ee	.
=158	=158	=158	=158
8AA'\L 8E	.	8e'\L 8cc#X 8ee	.
8D'\ 8A	.	8f#X'\ 8a	.
8D'\ 8A	.	8f#'\ 8a	.
8AA'\J 8E	.	8e'\J 8cc# 8ee	.
!LO:LB:g=original	!	!	!
=159	=159	=159	=159
8AA'\L 8E	.	8e'\L 8cc#X 8ee	.
8qF#X/	.	8qff#X/	.
8A'^\J	.	8aa'^\J	.
(16F#\LL	.	(16ff#\LL	.
16D\	.	16dd\	.
16BB\	.	16b\	.
16D\JJ	.	16dd\JJ	.
=160	=160	=160	=160
16E/LL	.	16ee\LL	.
16C#X/	.	16cc#X\	.
16AA/	.	16a\	.
16C#/JJ	.	16cc#\JJ	.
16BB/LL	.	16b/LL	.
16GG#X/	.	16g#X/	.
16EE/	.	16e/	.
16GG#/JJ	.	16g#/JJ	.
=161	=161	=161	=161
16AA/LL	.	16a/LL	.
16FF#X/	.	16f#X/	.
16DD/	.	16d/	.
16FF#/JJ	.	16f#/JJ	.
12EE/L	.	12e/L	.
12CC#X/	.	12c#X/	.
12AAA/J	.	12A/J	.
=162	=162	=162	=162
*ped	*	*	*
16CC#X/LL	.	16c#X/LL	.
16EE/	.	16e/	.
16AA/	.	16a/	.
16C#X/JJ	.	16cc#X/JJ	.
16E\LL	.	16ee\LL	.
16A\	.	16aa\	.
16c#X\	.	16ccc#X\	.
16e\JJ	.	16eee\JJ	.
=163	=163	=163	=163
8a'\)	.	8aaa'\)	.
8r	.	8r	.
4r	.	4r	.
*clefG2	*	*	*
=164	=164	=164	=164
*	*	*8va	*
8aa'\ 8ccc#X	.	8eee'\ 8aaa 8eeee	.
*	*	*X8va	*
*Xped	*	*	*
8r	.	8r	.
4r	.	4r	.
==	==	==	==
*-	*-	*-	*-
!!!system-decoration: {(s1,s2)}
!!!RDF**kern: < = above
!!!RDF**kern: > = below
!!!ENC: Andrzej Gręziak
!!!END: 2022-02-10
!!!ENC: Natalia Wrzos
!!!END: 2022-02-15
!!!YEC: Copyright 2022 Narodowy Instytut Fryderyka Chopina (https://polishscores.org)
!!!YEM: License CC-BY-4.0 (https://creativecommons.org/licenses/by/4.0)
